modules/feathericon/icons/sitemap.svg

<?xml version="1.0" encoding="UTF-8"?>
<svg width="14px" height="14px" viewBox="0 0 14 14" version="1.1" xmlns="http://www.w3.org/2000/svg" xmlns:xlink="http://www.w3.org/1999/xlink">
    <!-- Generator: sketchtool 48.1 (47250) - http://www.bohemiancoding.com/sketch -->
    <title>sitemap</title>
    <desc>Created with sketchtool.</desc>
    <defs></defs>
    <g id="web-app" stroke="none" stroke-width="1" fill="none" fill-rule="evenodd">
        <g id="sitemap" fill="#000000">
            <path d="M11.5,7 L11.5,10 C11.5,10 11,10 11,10 C10,10 10,11 10,11 L10,13 C10,13 10,14 11,14 C11,14 13,14 13,14 C14,14 14,13 14,13 L14,11 C14,11 14,10 13,10 L12.5,10 L12.5,7 C12.5,6 11.5,6 11.5,6 L7.5,6 L7.5,4 L8,4 C9,4 9,3 9,3 L9,1 C9,1 8.90999985,3.56659147e-15 8,3.56659147e-15 L6,3.73659437e-15 C5,5.16947596e-15 5,1 5,1 L5,3 C5,3 5,4 6,4 L6.5,4 L6.5,6 L2.5,6 C2.5,6 1.5,6 1.5,7 L1.5,10 C1.5,10 1,10 1,10 C0,10 0,11 0,11 L0,13 C0,13 0,14 1,14 L3,14 C4,14 4,13 4,13 L4,11 C4,10.9663456 4,10 3,10 C3,10 2.5,10 2.5,10 L2.5,7 L6.5,7 L6.5,10 L6,10 C5,10 5,11 5,11 L5,13 C5,13 5,14 6,14 L8,14 C9,14 9,13 9,13 L9,11 C9,11 9,10 8,10 L7.5,10 L7.5,7 L11.5,7 Z" id="Shape"></path>
        </g>
    </g>
</svg>

<svg width="14" height="14" viewBox="0 0 14 14" xmlns="http://www.w3.org/2000/svg"><path d="M11.5 7v3H11c-1 0-1 1-1 1v2s0 1 1 1h2c1 0 1-1 1-1v-2s0-1-1-1h-.5V7c0-1-1-1-1-1h-4V4H8c1 0 1-1 1-1V1s-.09-1-1-1H6C5 0 5 1 5 1v2s0 1 1 1h.5v2h-4s-1 0-1 1v3H1c-1 0-1 1-1 1v2s0 1 1 1h2c1 0 1-1 1-1v-2c0-.034 0-1-1-1h-.5V7h4v3H6c-1 0-1 1-1 1v2s0 1 1 1h2c1 0 1-1 1-1v-2s0-1-1-1h-.5V7h4z" fill="#000" fill-rule="evenodd"/></svg>
